img/svg/Facebook.svg

<svg width="16" height="16" viewBox="0 0 16 16" xmlns="http://www.w3.org/2000/svg">
<path d="M11.7079 0.669067L9.8564 0.666016C7.77629 0.666016 6.43204 2.08274 6.43204 4.2755V5.93972H4.57043C4.40956 5.93972 4.2793 6.07368 4.2793 6.23893V8.65019C4.2793 8.81543 4.40971 8.94925 4.57043 8.94925H6.43204V15.0336C6.43204 15.1989 6.5623 15.3327 6.72317 15.3327H9.15204C9.3129 15.3327 9.44317 15.1987 9.44317 15.0336V8.94925H11.6198C11.7807 8.94925 11.911 8.81543 11.911 8.65019L11.9118 6.23893C11.9118 6.15959 11.8811 6.0836 11.8266 6.02745C11.7721 5.9713 11.6978 5.93972 11.6206 5.93972H9.44317V4.52894C9.44317 3.85087 9.60047 3.50664 10.4603 3.50664L11.7076 3.50618C11.8683 3.50618 11.9986 3.37221 11.9986 3.20712V0.968129C11.9986 0.803187 11.8685 0.669372 11.7079 0.669067Z" />
</svg>

<svg width="16" height="16" xmlns="http://www.w3.org/2000/svg"><path d="M11.708.67L9.856.665c-2.08 0-3.424 1.417-3.424 3.61V5.94H4.57a.295.295 0 00-.29.299V8.65c0 .165.13.3.29.3h1.862v6.084c0 .165.13.299.291.299h2.429c.16 0 .291-.134.291-.3V8.95h2.177c.16 0 .291-.134.291-.299V6.24c0-.08-.03-.155-.084-.212a.287.287 0 00-.206-.087H9.443V4.529c0-.678.157-1.022 1.017-1.022h1.248c.16 0 .29-.135.29-.3V.968a.295.295 0 00-.29-.299z"/></svg>
